X:96
T:Maid Behind the Bar
M:4/4
L:1/8
S:D
R:Reel
K:D
D|:"F"F2AB AFED | FAAB ABde | "Bm"fBBA Bcde | f2 gf efdB |
"D"F2AB AFED | FAAB ABde | "Bm"fBBA BcdB | "A"AFEF "D"D3:|
|:g | "D"fgab afde | fdad bdad | "Em"efga beef | (3gfe be gfeg |
"D"fgaf bfaf | defd efde | "Bm"fBBA BcdB | "A"AFEF "D"D3:|
